icons/midnadark/actions/24/show-guides.svg

<svg xmlns="http://www.w3.org/2000/svg" viewBox="0 0 16 16"><path d="m4 3v1h1v-1h-1m0 2v1h1v-1h-1m0 2v1h1v-1h-1m0 2v1h1v-1h-1m-2 2v1h1v-1h-1m2 0v1h1v-1h-1m2 0v1h1v-1h-1m2 0v1h1v-1h-1m2 0v1h1v-1h-1m2 0v1h1v-1h-1m-8 2v1h1v-1h-1" transform="translate(-.004)" fill="#fff"/></svg>

<?xml version="1.0" encoding="UTF-8" standalone="no"?>
<!-- Created with Inkscape (http://www.inkscape.org/) -->

<svg
   xmlns:dc="http://purl.org/dc/elements/1.1/"
   xmlns:cc="http://creativecommons.org/ns#"
   xmlns:rdf="http://www.w3.org/1999/02/22-rdf-syntax-ns#"
   xmlns:svg="http://www.w3.org/2000/svg"
   xmlns="http://www.w3.org/2000/svg"
   xmlns:sodipodi="http://sodipodi.sourceforge.net/DTD/sodipodi-0.dtd"
   xmlns:inkscape="http://www.inkscape.org/namespaces/inkscape"
   width="16"
   height="16"
   id="svg3049"
   version="1.1"
   inkscape:version="0.91 r13725"
   sodipodi:docname="show-guides.svg"
   inkscape:export-filename="/home/uri/.kde/share/icons/NITRUX-KDE/16x16/actions/view-right-new.png"
   inkscape:export-xdpi="30"
   inkscape:export-ydpi="30">
  <defs
     id="defs3051" />
  <sodipodi:namedview
     id="base"
     pagecolor="#ffffff"
     bordercolor="#666666"
     borderopacity="1.0"
     inkscape:pageopacity="0.0"
     inkscape:pageshadow="2"
     inkscape:zoom="22.627417"
     inkscape:cx="0.44846769"
     inkscape:cy="5.6381847"
     inkscape:document-units="px"
     inkscape:current-layer="layer1-6"
     showgrid="true"
     fit-margin-top="0"
     fit-margin-left="0"
     fit-margin-right="0"
     fit-margin-bottom="0"
     inkscape:window-width="1366"
     inkscape:window-height="633"
     inkscape:window-x="0"
     inkscape:window-y="33"
     inkscape:window-maximized="1"
     inkscape:showpageshadow="false"
     borderlayer="true"
     inkscape:snap-bbox="true"
     inkscape:snap-global="true">
    <inkscape:grid
       type="xygrid"
       id="grid4085" />
    <sodipodi:guide
       position="2.0000044,14.00003"
       orientation="12,0"
       id="guide4075" />
    <sodipodi:guide
       position="2.0000044,2.0000296"
       orientation="0,12"
       id="guide4077" />
    <sodipodi:guide
       position="14,9"
       orientation="-12,0"
       id="guide4079" />
    <sodipodi:guide
       position="14.000004,14.00003"
       orientation="0,-12"
       id="guide4081" />
  </sodipodi:namedview>
  <metadata
     id="metadata3054">
    <rdf:RDF>
      <cc:Work
         rdf:about="">
        <dc:format>image/svg+xml</dc:format>
        <dc:type
           rdf:resource="http://purl.org/dc/dcmitype/StillImage" />
        <dc:title />
      </cc:Work>
    </rdf:RDF>
  </metadata>
  <g
     inkscape:label="Capa 1"
     inkscape:groupmode="layer"
     id="layer1"
     transform="translate(-421.71429,-531.79074)">
    <g
       transform="matrix(0.75,0,0,0.74999813,421.46429,-241.22897)"
       id="layer1-0"
       inkscape:label="Capa 1">
      <g
         transform="translate(6.2937501e-7,-2.041003e-4)"
         id="layer1-6"
         inkscape:label="Capa 1">
        <path
           style="fill:#ffffff;fill-opacity:1;stroke:none"
           d="M 4 3 L 4 4 L 5 4 L 5 3 L 4 3 z M 4 5 L 4 6 L 5 6 L 5 5 L 4 5 z M 4 7 L 4 8 L 5 8 L 5 7 L 4 7 z M 4 9 L 4 10 L 5 10 L 5 9 L 4 9 z M 2 11 L 2 12 L 3 12 L 3 11 L 2 11 z M 4 11 L 4 12 L 5 12 L 5 11 L 4 11 z M 6 11 L 6 12 L 7 12 L 7 11 L 6 11 z M 8 11 L 8 12 L 9 12 L 9 11 L 8 11 z M 10 11 L 10 12 L 11 12 L 11 11 L 10 11 z M 12 11 L 12 12 L 13 12 L 13 11 L 12 11 z M 4 13 L 4 14 L 5 14 L 5 13 L 4 13 z "
           transform="matrix(1.3333333,0,0,1.3333367,0.3333327,1030.6957)"
           id="path3396" />
      </g>
    </g>
  </g>
</svg>
